X:1
T:Title
%%score { ( 1 3 ) | 2 }
L:1/8
M:4/4
K:D
V:1 treble nm="Grand Piano"
V:3 treble 
V:2 bass 
V:1
 z4 z2[Q:1/4=108] [DF]>[EG] | [FA]2 [GB]>[FA] [Fd]2 [DF]>[EG] | [FA]6 [FA]>[FA] | %3
[M:3/4] B2 G>B [FA]2 |[M:1/4] [EG]>[DF] |[M:4/4] [CE]6 [DF]>[EG] | %6
 [FA]2 [GB]>[FA] [Fd]2 [A,DF]>[A,EG] | [DFA]6 [FAB]>[FAB] | %8
 [EAc]2 [CEA]>[A,CE] [^G,DF]2 [B,D^G]>[B,DG] |[M:3/4] [A,CA]6 |[M:1/4] A>A |[M:4/4] [FA]4 z4 | %12
 [FA]4 z4 | E2 [CE]>[DF] [EG]2 [DF]>[CE] | [DF]6 z2 | [FA]2- [DFA]2 F2 B>F | [FA]2- [DFA]2 F2 D>D | %17
 E2 F>G F2 [DF][CE] |[M:3/4] D6 |] %19
V:2
 z4 z2 [D,A,]>[D,A,] | [D,D]2 [D,D]>[D,D] [D,A,]2 [D,A,]>[D,A,] | [D,D]6 [D,D]>[D,D] | %3
[M:3/4][K:treble] [G,DG]2 [G,B,D]>[G,DG][K:bass] [D,D]2 |[M:1/4] [C,A,]>[D,A,] | %5
[M:4/4] [A,,A,]6 [D,A,]>[D,A,] | [D,D]2 [D,D]>[D,D] [D,A,]2 D,>D, | D,6 D,>D, | %8
 E,2 E,>E, E,2 E,>E, |[M:3/4] A,,6 |[M:1/4][K:treble] F>F |[M:4/4][K:bass] D,2 A,,2 [D,A,D]2 D>D | %12
 D,2 A,,2 [D,A,D]2 z2 | [C,A,]2 [A,,A,]2 [C,A,]2 [A,,A,]2 | [D,A,]2 A,,2 D,2[K:treble] F>F | %15
 D,2 A,,2 [D,A,D]2 D>D | D,2 A,,2 [D,A,D]2 [F,A,]>[F,A,] | %17
 [G,B,D]2 [F,B,D]>[E,B,E] [A,D]2 [A,,A,][A,,G,] |[M:3/4] [D,F,]6 |] %19
V:3
 x8 | x8 | x8 |[M:3/4] x6 |[M:1/4] x2 |[M:4/4] x8 | x8 | x8 | x8 |[M:3/4] x6 |[M:1/4] x2 | %11
[M:4/4] D2 D2 F2 B>F | D2 D2 F2 D>D | x8 | z2 A,2 A,2 A>A | D2 z2 z4 | D2 z2 z4 | x8 |[M:3/4] x6 |] %19

